static/img/kroki/e8b66b36f8cb25566d4610f4b553933c.svg

<?xml version="1.0" encoding="us-ascii" standalone="no"?><svg xmlns="http://www.w3.org/2000/svg" xmlns:xlink="http://www.w3.org/1999/xlink" contentStyleType="text/css" height="374px" preserveAspectRatio="none" style="width:458px;height:374px;" version="1.1" viewBox="0 0 458 374" width="458px" zoomAndPan="magnify"><defs/><g><!--class azure_machine_learning_workspace_connection--><g id="elem_azure_machine_learning_workspace_connection"><rect codeLine="23" fill="#3D176E" height="39.7891" id="azure_machine_learning_workspace_connection" rx="2.5" ry="2.5" style="stroke:#000D19;stroke-width:0.5;" width="444" x="7" y="328.58"/><ellipse cx="22" cy="348.4745" fill="#ADD1B2" rx="11" ry="11" style="stroke:#181818;stroke-width:1.0;"/><path d="M24.9688,354.1152 Q24.3906,354.412 23.75,354.5527 Q23.1094,354.7089 22.4063,354.7089 Q19.9063,354.7089 18.5781,353.0683 Q17.2656,351.412 17.2656,348.287 Q17.2656,345.162 18.5781,343.5058 Q19.9063,341.8495 22.4063,341.8495 Q23.1094,341.8495 23.75,342.0058 Q24.4063,342.162 24.9688,342.4589 L24.9688,345.1777 Q24.3438,344.5995 23.75,344.3339 Q23.1563,344.0527 22.5313,344.0527 Q21.1875,344.0527 20.5,345.1308 Q19.8125,346.1933 19.8125,348.287 Q19.8125,350.3808 20.5,351.4589 Q21.1875,352.5214 22.5313,352.5214 Q23.1563,352.5214 23.75,352.2558 Q24.3438,351.9745 24.9688,351.3964 L24.9688,354.1152 Z " fill="#000000"/><text fill="#D9B8FF" font-family="Helvetica" font-size="17" lengthAdjust="spacing" textLength="402" x="41" y="354.3598">azure_machine_learning_workspace_connection</text></g><!--class microsoft_resource--><g id="elem_microsoft_resource"><rect codeLine="26" fill="#3D176E" height="39.7891" id="microsoft_resource" rx="2.5" ry="2.5" style="stroke:#000D19;stroke-width:0.5;" width="200" x="129" y="167.79"/><ellipse cx="144" cy="187.6845" fill="#ADD1B2" rx="11" ry="11" style="stroke:#181818;stroke-width:1.0;"/><path d="M146.9688,193.3252 Q146.3906,193.622 145.75,193.7627 Q145.1094,193.9189 144.4063,193.9189 Q141.9063,193.9189 140.5781,192.2783 Q139.2656,190.622 139.2656,187.497 Q139.2656,184.372 140.5781,182.7158 Q141.9063,181.0595 144.4063,181.0595 Q145.1094,181.0595 145.75,181.2158 Q146.4063,181.372 146.9688,181.6689 L146.9688,184.3877 Q146.3438,183.8095 145.75,183.5439 Q145.1563,183.2627 144.5313,183.2627 Q143.1875,183.2627 142.5,184.3408 Q141.8125,185.4033 141.8125,187.497 Q141.8125,189.5908 142.5,190.6689 Q143.1875,191.7314 144.5313,191.7314 Q145.1563,191.7314 145.75,191.4658 Q146.3438,191.1845 146.9688,190.6064 L146.9688,193.3252 Z " fill="#000000"/><text fill="#D9B8FF" font-family="Helvetica" font-size="17" lengthAdjust="spacing" textLength="158" x="163" y="193.5698">microsoft_resource</text></g><!--class resource--><g id="elem_resource"><rect codeLine="29" fill="#3D176E" height="39.7891" id="resource" rx="2.5" ry="2.5" style="stroke:#000D19;stroke-width:0.5;" width="113" x="172.5" y="7"/><ellipse cx="187.5" cy="26.8945" fill="#ADD1B2" rx="11" ry="11" style="stroke:#181818;stroke-width:1.0;"/><path d="M190.4688,32.5352 Q189.8906,32.832 189.25,32.9727 Q188.6094,33.1289 187.9063,33.1289 Q185.4063,33.1289 184.0781,31.4883 Q182.7656,29.832 182.7656,26.707 Q182.7656,23.582 184.0781,21.9258 Q185.4063,20.2695 187.9063,20.2695 Q188.6094,20.2695 189.25,20.4258 Q189.9063,20.582 190.4688,20.8789 L190.4688,23.5977 Q189.8438,23.0195 189.25,22.7539 Q188.6563,22.4727 188.0313,22.4727 Q186.6875,22.4727 186,23.5508 Q185.3125,24.6133 185.3125,26.707 Q185.3125,28.8008 186,29.8789 Q186.6875,30.9414 188.0313,30.9414 Q188.6563,30.9414 189.25,30.6758 Q189.8438,30.3945 190.4688,29.8164 L190.4688,32.5352 Z " fill="#000000"/><text fill="#D9B8FF" font-family="Helvetica" font-size="17" lengthAdjust="spacing" textLength="71" x="206.5" y="32.7798">resource</text></g><!--reverse link microsoft_resource to azure_machine_learning_workspace_connection--><g id="link_microsoft_resource_azure_machine_learning_workspace_connection"><path codeLine="32" d="M229,225.84 C229,256.36 229,297.69 229,328.25 " fill="none" id="microsoft_resource-backto-azure_machine_learning_workspace_connection" style="stroke:#FFAF37;stroke-width:2.0;"/><polygon fill="none" points="229,207.84,223,225.84,235,225.84,229,207.84" style="stroke:#FFAF37;stroke-width:2.0;"/></g><!--reverse link resource to microsoft_resource--><g id="link_resource_microsoft_resource"><path codeLine="33" d="M229,65.05 C229,95.57 229,136.9 229,167.46 " fill="none" id="resource-backto-microsoft_resource" style="stroke:#FFAF37;stroke-width:2.0;"/><polygon fill="none" points="229,47.05,223,65.05,235,65.05,229,47.05" style="stroke:#FFAF37;stroke-width:2.0;"/></g><!--SRC=[bP9FRy8m3CNl_HIHE5U2eGqgxSAGfks2fh5xPHA7HctYoac7ODjt7mmsXPO_sjNlPxzdouLHAD3MOIqisWMoJtnfN0qCLaoOQJMbYbZqj0Oz7BN5HtBXAZ03Y-89gtSCHaARU2kCB1rwBsuYwG5akMHgdDgF3mpERoLq8QAc5NW_2O7DeWaOXL7POgnrcsmFxGtLO7I77OnO8H-GVh-l1baRkMfrSUy_OcusA0RnqMOKi1EpO_53NKov8wAGdKL_zRCPNq0fuvRYDggzxZEnGpwgpmjGjDhH6YeVs_Y0Z1JMDKuxMs4sLdfq4du-1oToTpe1cuOnjo0Bup2l4DXjtVCLSRbz4ecv9ETG1aDEV2J9rw7D6idaIOUSqLF34cFrk7Q2lVzCq_G_tachjJip-GO0]--></g></svg>

<svg xmlns="http://www.w3.org/2000/svg" width="458" height="374" viewBox="0 0 458 374"><rect width="444" height="39.789" x="7" y="328.58" fill="#3D176E" rx="2.5" ry="2.5" style="stroke:#000d19;stroke-width:.5"/><circle cx="22" cy="348.474" r="11" fill="#ADD1B2" style="stroke:#181818;stroke-width:1"/><path d="M24.969 354.115q-.578.297-1.219.438-.64.156-1.344.156-2.5 0-3.828-1.64-1.312-1.657-1.312-4.782t1.312-4.781q1.328-1.656 3.828-1.656.703 0 1.344.156.656.156 1.219.453v2.719q-.625-.579-1.219-.844-.594-.281-1.219-.281-1.343 0-2.031 1.078-.687 1.062-.687 3.156t.687 3.172q.688 1.062 2.031 1.062.625 0 1.219-.265.594-.281 1.219-.86z"/><text x="41" y="354.36" fill="#D9B8FF" font-family="Helvetica" font-size="17" textLength="402">azure_machine_learning_workspace_connection</text><rect width="200" height="39.789" x="129" y="167.79" fill="#3D176E" rx="2.5" ry="2.5" style="stroke:#000d19;stroke-width:.5"/><circle cx="144" cy="187.685" r="11" fill="#ADD1B2" style="stroke:#181818;stroke-width:1"/><path d="M146.969 193.325q-.578.297-1.219.438-.64.156-1.344.156-2.5 0-3.828-1.64-1.312-1.657-1.312-4.782t1.312-4.781q1.328-1.656 3.828-1.656.703 0 1.344.156.656.156 1.219.453v2.719q-.625-.578-1.219-.844-.594-.281-1.219-.281-1.344 0-2.031 1.078-.687 1.062-.687 3.156t.687 3.172q.688 1.062 2.031 1.062.625 0 1.219-.265.594-.281 1.219-.86z"/><text x="163" y="193.57" fill="#D9B8FF" font-family="Helvetica" font-size="17" textLength="158">microsoft_resource</text><rect width="113" height="39.789" x="172.5" y="7" fill="#3D176E" rx="2.5" ry="2.5" style="stroke:#000d19;stroke-width:.5"/><circle cx="187.5" cy="26.895" r="11" fill="#ADD1B2" style="stroke:#181818;stroke-width:1"/><path d="M190.469 32.535q-.578.297-1.219.438-.64.156-1.344.156-2.5 0-3.828-1.64-1.312-1.657-1.312-4.782t1.312-4.781q1.328-1.656 3.828-1.656.703 0 1.344.156.656.156 1.219.453v2.719q-.625-.578-1.219-.844-.594-.281-1.219-.281-1.344 0-2.031 1.078-.687 1.062-.687 3.156t.687 3.172q.688 1.062 2.031 1.062.625 0 1.219-.265.594-.281 1.219-.86z"/><text x="206.5" y="32.78" fill="#D9B8FF" font-family="Helvetica" font-size="17" textLength="71">resource</text><path fill="none" d="M229 225.84v102.41m0-120.41-6 18h12zm0-142.79v102.41m0-120.41-6 18h12z" style="stroke:#ffaf37;stroke-width:2"/></svg>
